**kern	**kern	**kern	**dynam	**kern	**kern	**kern	**kern	**dynam	**kern	**dynam	**kern
*part8	*part7	*part6	*part6	*part5	*part5	*part4	*part3	*part3	*part2	*part2	*part1
*staff9	*staff8	*staff7	*	*staff6	*staff5	*staff4	*staff3	*	*staff2	*	*staff1
*I"Electric Bass	*I"Electric Guitar	*I"Trombone	*	*I"BaccidentalFlat Trumpet	*	*I"Baritone Saxophone	*I"Tenor Saxophone	*	*I"Alto Saxophone	*	*I"Flute
*I'El. B.	*I'El. Guit.	*I'Trb.	*	*I'BaccidentalFlat Tpt.	*	*I'Bar. Sax.	*I'T. Sax.	*	*I'A. Sax.	*	*I'Fl.
*clefFv4	*clefGv2	*clefF4	*	*clefG2	*clefG2	*clefG2	*clefG2	*	*clefG2	*	*clefG2
*	*	*	*	*ITrd1c2	*ITrd1c2	*ITrd5c9	*ITrd1c2	*	*ITrd5c9	*	*
*k[]	*k[]	*k[]	*	*k[]	*k[]	*k[]	*k[]	*	*k[]	*	*k[]
*M4/4	*M4/4	*M4/4	*	*M4/4	*M4/4	*M4/4	*M4/4	*	*M4/4	*	*M4/4
=1	=1	=1	=1	=1	=1	=1	=1	=1	=1	=1	=1
!	!	!	!	!	!	!	!	!	!	!	!LO:TX:a:t="Sick and Sad"
!	!	!	!	!	!	!	!	!	!	!	!LO:TX:a:t="Sick and Sad"
8C\L	1r	4G\	.	2cc\	2cc\	2G/	2ee\	.	1r	.	1r
8C\	.	.	.	.	.	.	.	.	.	.	.
8C\	.	4r	.	.	.	.	.	.	.	.	.
8C\J	.	.	.	.	.	.	.	.	.	.	.
8FF\L	.	2A\	.	2f/	2f/	2A/	2a\	.	.	.	.
8FF\	.	.	.	.	.	.	.	.	.	.	.
8FF\	.	.	.	.	.	.	.	.	.	.	.
8FF\J	.	.	.	.	.	.	.	.	.	.	.
=2	=2	=2	=2	=2	=2	=2	=2	=2	=2	=2	=2
8C\L	1r	2G\	.	2cc\	2cc\	2G/	2ee\	.	1r	.	1r
8C\	.	.	.	.	.	.	.	.	.	.	.
8C\	.	.	.	.	.	.	.	.	.	.	.
8C\J	.	.	.	.	.	.	.	.	.	.	.
8GG\L	.	2B\	.	2g/	2g/	2B/	2b\	.	.	.	.
8GG\	.	.	.	.	.	.	.	.	.	.	.
8GG\	.	.	.	.	.	.	.	.	.	.	.
8GG\J	.	.	.	.	.	.	.	.	.	.	.
=3	=3	=3	=3	=3	=3	=3	=3	=3	=3	=3	=3
!	!	!	!	!	!	!	!	!	!	!LO:DY:a	!
8C\L	1r	2G\	.	2cc\	2cc\	2G/	2ee\	.	[1g	[[	1r
8C\	.	.	.	.	.	.	.	.	.	.	.
8C\	.	.	.	.	.	.	.	.	.	.	.
8C\J	.	.	.	.	.	.	.	.	.	.	.
8FF\L	.	2A\	.	2f/	2f/	2A/	2a\	.	.	.	.
8FF\	.	.	.	.	.	.	.	.	.	.	.
8FF\	.	.	.	.	.	.	.	.	.	.	.
8FF\J	.	.	.	.	.	.	.	.	.	.	.
=4	=4	=4	=4	=4	=4	=4	=4	=4	=4	=4	=4
!!pagebreak:original
8C\L	1r	2G\	.	2cc\	2cc\	2G/	2ee\	.	1g]	[	1r
8C\	.	.	.	.	.	.	.	.	.	.	.
8C\	.	.	.	.	.	.	.	.	.	.	.
8C\J	.	.	.	.	.	.	.	.	.	.	.
8GG\L	.	2B\	.	2g/	2gg\	2B/	2dd\	.	.	.	.
8GG\	.	.	.	.	.	.	.	.	.	.	.
8GG\	.	.	.	.	.	.	.	.	.	.	.
8GG\J	.	.	.	.	.	.	.	.	.	.	.
=5	=5	=5	=5	=5	=5	=5	=5	=5	=5	=5	=5
8FF\L	1r	2F\	.	2f/	2ff\	2F/	2a\	.	2f\	.	1r
8FF\	.	.	.	.	.	.	.	.	.	.	.
8FF\	.	.	.	.	.	.	.	.	.	.	.
8FF\J	.	.	.	.	.	.	.	.	.	.	.
8C\L	.	8c\L	.	8cc\L	8ee\L	8c/L	8cc\L	.	8cc\L	.	.
8C\	.	8c\	.	8cc\	8ff\	8c/	8cc\	.	8cc\	.	.
8C\J	.	8c\J	.	8cc\J	8ee\J	8c/J	8cc\J	.	8cc\J	.	.
8r	.	8r	.	8r	8r	8r	8r	.	8r	.	.
=6	=6	=6	=6	=6	=6	=6	=6	=6	=6	=6	=6
8C\L	1r	8G\L	.	8e/L	8ee\L	1r	1r	.	8e\L	.	1r
8GG\	.	8G\	.	8e/	8ee\	.	.	.	8e\	.	.
8C\	.	8G\	.	8e/	8ee\	.	.	.	8e\	.	.
8D\J	.	8A\J	.	8f/J	8ff\J	.	.	.	8f\J	.	.
8E\L	.	16G\KL	.	16e/KL	16ee\KL	.	.	.	16e\KL	.	.
.	.	8F\	.	8d/	8dd\	.	.	.	8d\	.	.
8BB\	.	.	.	.	.	.	.	.	.	.	.
.	.	8E\J	.	8c/J	8cc\J	.	.	.	8c\J	.	.
8G\	.	.	.	.	.	.	.	.	.	.	.
.	.	16r	.	8r	8r	.	.	.	8r	.	.
8E\J	.	8r	.	.	.	.	.	.	.	.	.
.	.	.	.	16r	16r	.	.	.	16r	.	.
=7	=7	=7	=7	=7	=7	=7	=7	=7	=7	=7	=7
!!pagebreak:original
8A\L	1r	16G\KL	.	16e/KL	16ee\KL	8r	8r	.	16c/KL	.	1r
.	.	8F\	.	8d/	8dd\	.	.	.	8d/	.	.
8G\J	.	.	.	.	.	8r	8r	.	.	.	.
.	.	8E\J	.	8c/J	8cc\J	.	.	.	8c/J	.	.
16E\LL	.	.	.	.	.	8r	8r	.	.	.	.
16F\J	.	16r	.	16r	16r	.	.	.	16r	.	.
8G\J	.	8r	.	8r	8r	8r	8r	.	8r	.	.
8F\L	.	16G\KL	.	16e/KL	16ee\KL	16g\KL	16g/KL	.	16c/KL	.	.
.	.	8F\	.	8d/	8dd\	8f\	8f/	.	8d/	.	.
8E\	.	.	.	.	.	.	.	.	.	.	.
.	.	8E\	.	8c/	8cc\	8e\	8e/	.	8c/	.	.
8F\	.	.	.	.	.	.	.	.	.	.	.
.	.	8F\	.	8d/	8dd\	8f\	8f/	.	8d/	.	.
8G\J	.	.	.	.	.	.	.	.	.	.	.
.	.	[16E\Jk	.	[16c/Jk	[16cc\Jk	[16c\Jk	[16c/Jk	.	[16c/Jk	.	.
=8	=8	=8	=8	=8	=8	=8	=8	=8	=8	=8	=8
8c\L	1r	4..E\]	.	4..c/]	4..cc\]	4..c/]	4..c/]	.	4..c/]	.	1r
8G\	.	.	.	.	.	.	.	.	.	.	.
8E\	.	.	.	.	.	.	.	.	.	.	.
8C\J	.	.	.	.	.	.	.	.	.	.	.
.	.	2G\	.	2d/	2dd\	2d\	2g/	.	2d\	.	.
8G\L	.	.	.	.	.	.	.	.	.	.	.
8D\J	.	.	.	.	.	.	.	.	.	.	.
16G\LL	.	.	.	.	.	.	.	.	.	.	.
16A\J	.	.	.	.	.	.	.	.	.	.	.
8G\J	.	.	.	.	.	.	.	.	.	.	.
.	.	[16c\	.	[16c/	[16ff\	[16f\	[16f/	.	[16c/	.	.
=9	=9	=9	=9	=9	=9	=9	=9	=9	=9	=9	=9
!!pagebreak:original
8F\L	1r	4..c\]	.	4..c/]	4..ff\]	4..f\]	4..f/]	.	4..c/]	.	1r
8E\	.	.	.	.	.	.	.	.	.	.	.
8D\	.	.	.	.	.	.	.	.	.	.	.
8G\J	.	.	.	.	.	.	.	.	.	.	.
.	.	16G\	.	16e/	16ee\	16c/	16c/	.	16e\	.	.
8C\L	.	16G\LL	.	16e/LL	16ee\LL	16c/LL	16c/LL	.	16e\LL	.	.
.	.	16G\	.	16e/	16ee\	16c/	16c/	.	16e\	.	.
8C\	.	16G\	.	16e/	16ee\	16c/	16c/	.	16e\	.	.
.	.	16G\JJ	.	16e/JJ	16ee\JJ	16c/JJ	16c/JJ	.	16e\JJ	.	.
8C\	.	4r	.	8c/	8cc\	4r	4r	.	8c\	.	.
8GG\J	.	.	.	8r	8r	.	.	.	8r	.	.
=10	=10	=10	=10	=10	=10	=10	=10	=10	=10	=10	=10
8C\L	1r	8G\L	.	8e/L	8ee\L	1r	1r	.	8e\L	.	1r
8GG\	.	8G\	.	8e/	8ee\	.	.	.	8e\	.	.
8C\	.	8G\	.	8e/	8ee\	.	.	.	8e\	.	.
8D\J	.	8A\J	.	8f/J	8ff\J	.	.	.	8f\J	.	.
8E\L	.	16G\KL	.	16e/KL	16ee\KL	.	.	.	16e\KL	.	.
.	.	8F\	.	8d/	8dd\	.	.	.	8d\	.	.
8BB\	.	.	.	.	.	.	.	.	.	.	.
.	.	8E\J	.	8c/J	8cc\J	.	.	.	8c\J	.	.
8G\	.	.	.	.	.	.	.	.	.	.	.
.	.	16r	.	16r	16r	.	.	.	8r	.	.
8E\J	.	8r	.	8r	8r	.	.	.	.	.	.
.	.	.	.	.	.	.	.	.	16r	.	.
=11	=11	=11	=11	=11	=11	=11	=11	=11	=11	=11	=11
!!pagebreak:original
8A\L	1r	16G\KL	.	16e/KL	16ee\KL	8r	8r	.	16c/KL	.	1r
.	.	8F\	.	8d/	8dd\	.	.	.	8d/	.	.
8G\J	.	.	.	.	.	8r	8r	.	.	.	.
.	.	8E\J	.	8c/J	8cc\J	.	.	.	8c/J	.	.
16E\LL	.	.	.	.	.	8r	8r	.	.	.	.
16F\J	.	16r	.	16r	16r	.	.	.	16r	.	.
8G\J	.	8r	.	8r	8r	8r	8r	.	8r	.	.
8F\L	.	16G\KL	.	16e/KL	16ee\KL	16g\KL	16g/KL	.	16c/KL	.	.
.	.	8F\	.	8d/	8dd\	8f\	8f/	.	8d/	.	.
8E\	.	.	.	.	.	.	.	.	.	.	.
.	.	8E\	.	8c/	8cc\	8e\	8e/	.	8c/	.	.
8F\	.	.	.	.	.	.	.	.	.	.	.
.	.	8F\	.	8d/	8dd\	8f\	8f/	.	8d/	.	.
8G\J	.	.	.	.	.	.	.	.	.	.	.
.	.	[16E\Jk	.	[16c/Jk	[16cc\Jk	[16c\Jk	[16c/Jk	.	[16c/Jk	.	.
=12	=12	=12	=12	=12	=12	=12	=12	=12	=12	=12	=12
8c\L	1r	4..E\]	.	4..c/]	4..cc\]	4..c/]	4..c/]	.	4..c/]	.	1r
8G\	.	.	.	.	.	.	.	.	.	.	.
8E\	.	.	.	.	.	.	.	.	.	.	.
8C\J	.	.	.	.	.	.	.	.	.	.	.
.	.	2G\	.	2d/	2dd\	2d\	2g/	.	2d\	.	.
8G\L	.	.	.	.	.	.	.	.	.	.	.
8D\J	.	.	.	.	.	.	.	.	.	.	.
16G\LL	.	.	.	.	.	.	.	.	.	.	.
16A\J	.	.	.	.	.	.	.	.	.	.	.
8G\J	.	.	.	.	.	.	.	.	.	.	.
.	.	[16c\	.	[16c/	[16ff\	[16f\	[16f/	.	[16c/	.	.
=13	=13	=13	=13	=13	=13	=13	=13	=13	=13	=13	=13
!!pagebreak:original
8F\L	1r	4..c\]	.	4..c/]	4..ff\]	4..f\]	4..f/]	.	4..c/]	.	1r
8E\	.	.	.	.	.	.	.	.	.	.	.
8D\	.	.	.	.	.	.	.	.	.	.	.
8G\J	.	.	.	.	.	.	.	.	.	.	.
.	.	16G\	.	16e/	16ee\	16c/	16c/	.	16e\	.	.
8C\L	.	16G\LL	.	16e/LL	16ee\LL	16c/LL	16c/LL	.	16e\LL	.	.
.	.	16G\	.	16e/	16ee\	16c/	16c/	.	16e\	.	.
8C\	.	16G\	.	16e/	16ee\	16c/	16c/	.	16e\	.	.
.	.	16G\JJ	.	16e/JJ	16ee\JJ	16c/JJ	16c/JJ	.	16e\JJ	.	.
8C\J	.	16G\	.	8c/	8cc\	16r	16r	.	8c\	.	.
.	.	16r	.	.	.	16r	16r	.	.	.	.
8r	.	8r	.	8r	8r	8r	8r	.	8r	.	.
=14	=14	=14	=14	=14	=14	=14	=14	=14	=14	=14	=14
8C\L	1r	2r	.	16r	16r	8c/L	2r	.	16r	.	1r
.	.	.	.	16cc\LL	16ee\LL	.	.	.	16c/LL	.	.
8C\	.	.	.	16cc\J	16ee\J	8c/	.	.	16c/J	.	.
.	.	.	.	8cc\	8ee\	.	.	.	8c/	.	.
8C\	.	.	.	.	.	8c/	.	.	.	.	.
.	.	.	.	8cc\J	8ee\J	.	.	.	8c/J	.	.
8C\J	.	.	.	.	.	8c/J	.	.	.	.	.
.	.	.	.	2f/	2a\	.	.	.	2F/	.	.
8FF\L	.	16A\LL	ff	.	.	8F/L	16a\LL	.	.	.	.
.	.	16c\	.	.	.	.	16cc\	.	.	.	.
8FF\	.	16e\	.	.	.	8F/	16ee\	.	.	.	.
.	.	16e\JJ	.	.	.	.	16ee\JJ	.	.	.	.
8FF\	.	16e\LL	.	.	.	8F/	16ee\LL	.	.	.	.
.	.	16d\J	.	.	.	.	16dd\J	.	.	.	.
8FF\J	.	[8c\J	.	.	.	8F/J	[8cc\J	.	.	.	.
.	.	.	.	16r	16r	.	.	.	16r	.	.
=15	=15	=15	=15	=15	=15	=15	=15	=15	=15	=15	=15
!!pagebreak:original
8C\L	1r	4.c\]	.	8r	8r	8c/L	4.cc\]	.	8r	.	1r
8C\	.	.	.	16cc\LL	16ee\LL	8c/	.	.	16c/LL	.	.
.	.	.	.	16cc\JJ	16ee\JJ	.	.	.	16c/JJ	.	.
8C\	.	.	.	8cc\L	8ee\L	8c/	.	.	8c/L	.	.
8C\J	.	8r	.	8cc\J	8cc\J	8c/J	8r	.	8c/J	.	.
8GG\L	.	16r	.	2g/	2dd\	8G/L	16r	.	2G/	.	.
.	.	16A\LL	.	.	.	.	16a\LL	.	.	.	.
8GG\	.	16c\	.	.	.	8G/	16cc\	.	.	.	.
.	.	16e\JJ	.	.	.	.	16ee\JJ	.	.	.	.
8GG\	.	16e\LL	.	.	.	8G/	16ee\LL	.	.	.	.
.	.	16e\	.	.	.	.	16ee\	.	.	.	.
8GG\J	.	16d\	.	.	.	8G/J	16dd\	.	.	.	.
.	.	[16c\JJ	.	.	.	.	[16cc\JJ	.	.	.	.
=16	=16	=16	=16	=16	=16	=16	=16	=16	=16	=16	=16
8C\L	1r	4..c\]	.	8r	8r	8c/L	4..cc\]	.	8r	.	1r
8C\	.	.	.	16cc\LL	16ee\LL	8c/	.	.	16c/LL	.	.
.	.	.	.	16cc\JJ	16ee\JJ	.	.	.	16c/JJ	.	.
8C\	.	.	.	8cc\L	8ee\L	8c/	.	.	8c/L	.	.
8C\J	.	.	.	8cc\J	8ee\J	8c/J	.	.	8c/J	.	.
.	.	16r	.	.	.	.	4r	.	.	.	.
8FF\L	.	16F\LL	.	4.a\	4.a\	8F/L	.	.	4.F/	.	.
.	.	16F\JJ	.	.	.	.	.	.	.	.	.
8FF\	.	16r	.	.	.	8F/	.	.	.	.	.
.	.	16F\	.	.	.	.	8r	.	.	.	.
8FF\	.	16r	.	.	.	8F/	.	.	.	.	.
.	.	16F\	.	.	.	.	16r	.	.	.	.
8FF\J	.	16r	.	8e/	8g/	8F/J	[8cc\	.	8A/	.	.
.	.	16r	.	.	.	.	.	.	.	.	.
=17	=17	=17	=17	=17	=17	=17	=17	=17	=17	=17	=17
!!pagebreak:original
8C\L	1r	4r	.	4.cc\	4.ee\	8c/L	4.cc\]	.	4.e\	.	1r
8C\	.	.	.	.	.	8c/	.	.	.	.	.
8C\	.	16r	.	.	.	8c/	.	.	.	.	.
.	.	16r	.	.	.	.	.	.	.	.	.
8C\J	.	16G\LL	.	8e/	8cc\	8c/J	8r	.	8c/	.	.
.	.	16G\JJ	.	.	.	.	.	.	.	.	.
8GG\L	.	16r	.	4.g/	4.dd\	8G/L	2r	.	4.d\	.	.
.	.	16G\	.	.	.	.	.	.	.	.	.
8GG\	.	16r	.	.	.	8G/	.	.	.	.	.
.	.	16G\	.	.	.	.	.	.	.	.	.
8GG\	.	16r	.	.	.	8G/	.	.	.	.	.
.	.	16r	.	.	.	.	.	.	.	.	.
8GG\J	.	16r	.	8e/	8a\	8G/J	.	.	8A/	.	.
.	.	16r	.	.	.	.	.	.	.	.	.
=18	=18	=18	=18	=18	=18	=18	=18	=18	=18	=18	=18
8FF\L	1r	2F\	.	4.f/	4.cc\	8F/L	2f/	.	4.f\	.	1r
8FF\	.	.	.	.	.	8F/	.	.	.	.	.
8FF\	.	.	.	.	.	8F/	.	.	.	.	.
8FF\J	.	.	.	8e/	8a\	8F/J	.	.	8e\	.	.
8C\L	.	8E\L	.	8c/L	8cc\L	8c/L	8e/L	.	8c/L	.	.
8C\	.	8F\	.	8c/	8cc\	8c/	8f/	.	8c/	.	.
8C\J	.	8E\J	.	8c/J	8cc\J	8c/J	8e/J	.	8c/J	.	.
8r	.	8r	.	8r	8r	8r	8r	.	8r	.	.
=19	=19	=19	=19	=19	=19	=19	=19	=19	=19	=19	=19
1r	1r	1CC	.	1r	1r	1C	1r	.	1r	.	1r
=20	=20	=20	=20	=20	=20	=20	=20	=20	=20	=20	=20
1r	1r	1r	.	1r	1r	1r	1r	.	1r	.	1r
=21	=21	=21	=21	=21	=21	=21	=21	=21	=21	=21	=21
!!pagebreak:original
!	!	!	!	!	!	!	!	!	!	!	!LO:TX:a:B:t=Fast
!	!	!	!	!	!	!	!	!	!	!	!LO:TX:a:B:t=Fast
!	!	!	!	!	!	!	!	!	!	!	!LO:TX:a:t="Everything Goes Numb"
!	!	!	!	!	!	!	!	!	!	!	!LO:TX:a:B:t=Fast
!	!	!	!	!	!	!	!	!	!	!	!LO:TX:a:B:t=Fast
!	!	!	!	!	!	!	!	!	!	!	!LO:TX:a:t="Everything Goes Numb"
1r	1r	1r	.	1r	1r	16c/	1r	.	1r	.	1r
.	.	.	.	.	.	8r	.	.	.	.	.
.	.	.	.	.	.	16c/	.	.	.	.	.
.	.	.	.	.	.	8r	.	.	.	.	.
.	.	.	.	.	.	16c/	.	.	.	.	.
.	.	.	.	.	.	16r	.	.	.	.	.
.	.	.	.	.	.	16A########################################################################################################################################################################################################################################################################################################################################################################################################################################################################################################################################################################################################################################################################################################################################################################################################################################################################################################################################################################################################################################/	.	.	.	.	.
.	.	.	.	.	.	16r	.	.	.	.	.
.	.	.	.	.	.	16B-/	.	.	.	.	.
.	.	.	.	.	.	16r	.	.	.	.	.
.	.	.	.	.	.	16G/	.	.	.	.	.
.	.	.	.	.	.	16r	.	.	.	.	.
.	.	.	.	.	.	8r	.	.	.	.	.
=22	=22	=22	=22	=22	=22	=22	=22	=22	=22	=22	=22
1r	1r	1r	.	1r	1r	16C/	16c/	.	1r	.	1r
.	.	.	.	.	.	8r	8r	.	.	.	.
.	.	.	.	.	.	16C/	16c/	.	.	.	.
.	.	.	.	.	.	8r	8r	.	.	.	.
.	.	.	.	.	.	16C/	16c/	.	.	.	.
.	.	.	.	.	.	16r	16r	.	.	.	.
.	.	.	.	.	.	16G#X/	16g#X/	.	.	.	.
.	.	.	.	.	.	16r	16r	.	.	.	.
.	.	.	.	.	.	16G/	16g/	.	.	.	.
.	.	.	.	.	.	16r	16r	.	.	.	.
.	.	.	.	.	.	16F/	16f/	.	.	.	.
.	.	.	.	.	.	16r	16r	.	.	.	.
.	.	.	.	.	.	8r	8r	.	.	.	.
=23	=23	=23	=23	=23	=23	=23	=23	=23	=23	=23	=23
!!pagebreak:original
1r	1r	1r	.	1r	1r	16c/	16cc\	.	16cc\	.	1r
.	.	.	.	.	.	8r	8r	.	8r	.	.
.	.	.	.	.	.	16c/	16cc\	.	16cc\	.	.
.	.	.	.	.	.	8r	8r	.	8r	.	.
.	.	.	.	.	.	16c/	16cc\	.	16cc\	.	.
.	.	.	.	.	.	16r	16r	.	16r	.	.
.	.	.	.	.	.	16A-/	16g#X/	.	16g#X\	.	.
.	.	.	.	.	.	16r	16r	.	16r	.	.
.	.	.	.	.	.	16B-/	16a#X\	.	16cc--\	.	.
.	.	.	.	.	.	16r	16r	.	16r	.	.
.	.	.	.	.	.	16G/	16g/	.	16g\	.	.
.	.	.	.	.	.	16r	16r	.	16r	.	.
.	.	.	.	.	.	8r	8r	.	8r	.	.
=24	=24	=24	=24	=24	=24	=24	=24	=24	=24	=24	=24
1r	1r	1r	.	1r	8r	4.G#X/	4.cc\	.	4.cc\	.	1r
.	.	.	.	.	8r	.	.	.	.	.	.
.	.	.	.	.	8r	.	.	.	.	.	.
.	.	.	.	.	8r	16G/LL	16dd\LL	.	16dd\LL	.	.
.	.	.	.	.	.	16G#X/JJ	16cc\JJ	.	16cc\JJ	.	.
.	.	.	.	.	8r	8G/	16b\	.	16b\	.	.
.	.	.	.	.	.	.	16r	.	16r	.	.
.	.	.	.	.	8r	8r	8r	.	8r	.	.
.	.	.	.	.	8r	4r	4r	.	4r	.	.
.	.	.	.	.	8g/	.	.	.	.	.	.
=25	=25	=25	=25	=25	=25	=25	=25	=25	=25	=25	=25
!!pagebreak:original
16C\	1r	16C/	.	16g/	16cc\LL	16c/	16cc\	.	1r	.	1r
8r	.	8r	.	8r	16dd\	8r	8r	.	.	.	.
.	.	.	.	.	16cc\	.	.	.	.	.	.
16C\	.	16C/	.	16g/	16b\JJ	16c/	16cc\	.	.	.	.
8r	.	8r	.	8r	4.cc\	8r	8r	.	.	.	.
16C\	.	16C/	.	16g/	.	16c/	16cc\	.	.	.	.
16r	.	16r	.	16r	.	16r	16r	.	.	.	.
16AA-X\	.	16AA-X/	.	16g/	.	16A-/	16g#X/	.	.	.	.
16r	.	16r	.	16r	.	16r	16r	.	.	.	.
16BB-X\	.	16BB-X/	.	16g#X/	8cc\L	16B-/	16a#X\	.	.	.	.
16r	.	16r	.	16r	.	16r	16r	.	.	.	.
16GG\	.	16GG/	.	16g/	8dd\	16G/	16g/	.	.	.	.
16r	.	16r	.	16r	.	16r	16r	.	.	.	.
8r	.	8r	.	8r	8dd#X\J	8r	8r	.	.	.	.
=26	=26	=26	=26	=26	=26	=26	=26	=26	=26	=26	=26
16C\	1r	16CC/	.	16cc\	16gg\LL	16C/	16c/	.	1r	.	1r
8r	.	8r	.	8r	16gg#X\	8r	8r	.	.	.	.
.	.	.	.	.	16gg\	.	.	.	.	.	.
16C\	.	16CC/	.	16cc\	16ff\JJ	16C/	16c/	.	.	.	.
8r	.	8r	.	8r	4.gg\	8r	8r	.	.	.	.
16C\	.	16CC/	.	16cc\	.	16C/	16c/	.	.	.	.
16r	.	16r	.	16r	.	16r	16r	.	.	.	.
16AA-X\	.	16AA-X/	.	16dd#X\	.	16A-/	16g#X/	.	.	.	.
16r	.	16r	.	16r	.	16r	16r	.	.	.	.
16GG\	.	16GG/	.	16dd\	8gg\L	16G/	16g/	.	.	.	.
16r	.	16r	.	16r	.	16r	16r	.	.	.	.
16FF\	.	16FF/	.	16cc\	8gg#X\	16F/	16f/	.	.	.	.
16r	.	16r	.	16r	.	16r	16r	.	.	.	.
8r	.	8r	.	8r	8gg\J	8r	8r	.	.	.	.
=27	=27	=27	=27	=27	=27	=27	=27	=27	=27	=27	=27
!!pagebreak:original
16C\	1r	16C/	.	16g/	16ff\LL	16c/	16cc\	.	1r	.	1r
8r	.	8r	.	8r	16gg#X\	8r	8r	.	.	.	.
.	.	.	.	.	16gg\	.	.	.	.	.	.
16C\	.	16C/	.	16g/	16ff\JJ	16c/	16cc\	.	.	.	.
8r	.	8r	.	8r	4.gg\	8r	8r	.	.	.	.
16C\	.	16C/	.	16g/	.	16c/	16cc\	.	.	.	.
16r	.	16r	.	16r	.	16r	16r	.	.	.	.
16D#X\	.	16AA-X/	.	16g/	.	16A-/	16g#X/	.	.	.	.
16r	.	16r	.	16r	.	16r	16r	.	.	.	.
16F\	.	16BB-X/	.	16g#X/	8dd#X\L	16B-/	16a#X\	.	.	.	.
16r	.	16r	.	16r	.	16r	16r	.	.	.	.
16G\	.	16GG/	.	16g/	8dd\	16G/	16g/	.	.	.	.
16r	.	16r	.	16r	.	16r	16r	.	.	.	.
8r	.	8r	.	8r	8cc\J	8r	8r	.	.	.	.
=28	=28	=28	=28	=28	=28	=28	=28	=28	=28	=28	=28
4.G#X\	1r	4.AA-X/	.	4.dd#X\	16cc\LL	4.A-/	4.cc\	.	2r	.	1r
.	.	.	.	.	16dd\	.	.	.	.	.	.
.	.	.	.	.	16dd#X\	.	.	.	.	.	.
.	.	.	.	.	16ee\JJ	.	.	.	.	.	.
.	.	.	.	.	16ff\LL	.	.	.	.	.	.
.	.	.	.	.	16gg\	.	.	.	.	.	.
16A#X\LL	.	16GG/LL	.	16dd#X\LL	16bb\J	16G/LL	16dd\LL	.	.	.	.
16G#X\JJ	.	16AA-/JJ	.	16ff\JJ	8ccc\J	16A-/JJ	16cc\JJ	.	.	.	.
8Gn\	.	8GG/	.	16dd\	.	8G/	16b\	.	8r	.	.
.	.	.	.	16r	16r	.	16r	.	.	.	.
8r	.	8r	.	8r	8r	8r	8r	.	8g\L	.	.
4r	.	4r	.	4r	4r	4r	4r	.	8d#X\	.	.
.	.	.	.	.	.	.	.	.	8f\J	.	.
=29	=29	=29	=29	=29	=29	=29	=29	=29	=29	=29	=29
!!pagebreak:original
8CC\L	1r	8C/	.	1r	1r	8c/	8g/L	.	8c\L	.	8cc\L
16GG\L	.	8r	.	.	.	8r	16c/Jk	.	16g\Jk	.	16gg\Jk
16GG\JJ	.	.	.	.	.	.	16r	.	16r	.	16r
8GG\L	.	8C/	.	.	.	8c/	8g/L	.	8c\L	.	8cc\L
8FF\J	.	8r	.	.	.	8r	16d/Jk	.	16f\Jk	.	16ff\Jk
.	.	.	.	.	.	.	16r	.	16r	.	16r
8DD#X/L	.	8C/	.	.	.	8c/	8g/L	.	8c/L	.	8cc\L
8DDn/	.	8r	.	.	.	8r	16d#X/Jk	.	16d#X/Jk	.	16dd#X\Jk
.	.	.	.	.	.	.	16r	.	16r	.	16r
8CC/	.	8C/	.	.	.	8c/	8g/L	.	8c/L	.	8cc\L
8AAA#X/J	.	8r	.	.	.	8r	16g#X/Jk	.	16d/Jk	.	16ddn\Jk
.	.	.	.	.	.	.	16r	.	16r	.	16r
=30	=30	=30	=30	=30	=30	=30	=30	=30	=30	=30	=30
8GGG#X/L	1r	8G\	.	1r	2r	8g\	8f/L	.	8c\L	.	8cc\L
8CC/	.	8r	.	.	.	8r	16g/Jk	.	16g\Jk	.	16gg\Jk
.	.	.	.	.	.	.	16r	.	16r	.	16r
8CC#X/	.	8G\	.	.	.	8g\	16f/	.	16c/	.	16ff\
.	.	.	.	.	.	.	16r	.	16r	.	16r
8DD/J	.	8r	.	.	.	8r	16g/LL	.	16g#X\LL	.	2r
.	.	.	.	.	.	.	16g/JJ	.	16g\JJ	.	.
16DD#X/KL	.	8F\	.	.	8gg\L	8f\	16g/LL	.	16f\LL	.	.
8DD#/	.	.	.	.	.	.	16g/	.	16d#X\JJ	.	.
.	.	8r	.	.	16gg\Jk	8r	16g/JJ	.	4c/	.	.
8DD#/	.	.	.	.	16r	.	16r	.	.	.	.
.	.	4D#X\	.	.	16r	8d#X\	4r	.	.	.	.
16DDn/L	.	.	.	.	16gg\	.	.	.	.	.	.
16DD/	.	.	.	.	16r	8r	.	.	8r	.	8r
16CCn/JJ	.	.	.	.	16ff\	.	.	.	.	.	.
=31	=31	=31	=31	=31	=31	=31	=31	=31	=31	=31	=31
!!pagebreak:original
16FFF/	1r	8F\L	.	1r	8.dd#X\	8c/	8f/L	.	2r	.	2r
16r	.	.	.	.	.	.	.	.	.	.	.
8r	.	8F\	.	.	.	8r	8f/	.	.	.	.
.	.	.	.	.	16r	.	.	.	.	.	.
16FFF/	.	8F\	.	.	4r	8c/	8f/	.	.	.	.
16r	.	.	.	.	.	.	.	.	.	.	.
16FFF/	.	8F\J	.	.	.	8r	8f/J	.	.	.	.
16r	.	.	.	.	.	.	.	.	.	.	.
16CC/	.	8c\L	.	.	2r	8g\	8cc\L	.	8r	.	8r
16r	.	.	.	.	.	.	.	.	.	.	.
8r	.	8c\	.	.	.	8r	8cc\	.	8r	.	8r
16CC/	.	8c\	.	.	.	8g\	8cc\	.	16c/	.	16cc\
16r	.	.	.	.	.	.	.	.	16r	.	16r
16CC/	.	8c\J	.	.	.	8r	8cc\J	.	16c/	.	16cc\
16r	.	.	.	.	.	.	.	.	16r	.	16r
=32	=32	=32	=32	=32	=32	=32	=32	=32	=32	=32	=32
8GGG#X/L	1r	8G#X\L	.	2r	2r	8g#X\L	8g#X/L	.	8d#X\L	.	8dd#X\L
8GGG#X/	.	8G#X\	.	.	.	8g#X\	8g#X/	.	8d#X\	.	8dd#X\
8GGG#X/	.	8G#X\	.	.	.	8g#X\	8g#X/	.	8d#X\	.	8dd#X\
8GGG#X/J	.	8G#X\J	.	.	.	8g#X\J	8g#X/J	.	8d#X\J	.	8dd#X\J
8AAA#X/L	.	8Gn\L	.	8dd#X\L	8dd#X\L	8g\L	8g/L	.	8d\L	.	8ddn\L
8AAA#X/	.	8G\	.	8dd#X\J	8dd#X\J	8g\	8g/	.	8d\	.	8dd\
8BBB/	.	8G\	.	16dd\LL	16dd\LL	8g\	8g/	.	8d#X\	.	8dd#X\
.	.	.	.	16cc\	16cc\J	.	.	.	.	.	.
8BBB/J	.	8G\J	.	16b\	8b\J	8g\J	8g/J	.	8d#X\J	.	8dd#X\J
.	.	.	.	[16cc\JJ	.	.	.	.	.	.	.
=33	=33	=33	=33	=33	=33	=33	=33	=33	=33	=33	=33
!!pagebreak:original
8CC\L	1r	16C/	.	8.cc\]	4cc\	16c/	16cc\	.	16g\	.	16gg\
.	.	16r	.	.	.	16r	16r	.	16r	.	16r
8GG\	.	8r	.	.	.	8r	8r	.	8r	.	8r
.	.	.	.	16r	.	.	.	.	.	.	.
8CC\	.	16C/	.	4r	4r	16c/	16cc\	.	16g\	.	16gg\
.	.	16r	.	.	.	16r	16r	.	16r	.	16r
8FF\J	.	16C/	.	.	.	16c/	8r	.	16g\	.	16gg\
.	.	16r	.	.	.	16r	.	.	16r	.	16r
8CC/L	.	16GG/	.	2r	2r	16G/	16dd\	.	16f\	.	16ff\
.	.	16r	.	.	.	16r	16r	.	16r	.	16r
8DD#X/	.	8r	.	.	.	8r	8r	.	8r	.	8r
8CC/	.	16GG/	.	.	.	16G/	16dd\	.	16f\	.	16ff\
.	.	16r	.	.	.	16r	16r	.	16r	.	16r
8DDn/J	.	16GG/	.	.	.	16G/	8r	.	16f\	.	16ff\
.	.	16r	.	.	.	16r	.	.	16r	.	16r
=34	=34	=34	=34	=34	=34	=34	=34	=34	=34	=34	=34
8CC\L	1r	16C/	.	2r	2r	16c/	16cc\	.	16g\	.	16gg\
.	.	16r	.	.	.	16r	16r	.	16r	.	16r
8GG\	.	8r	.	.	.	8r	8r	.	8r	.	8r
8CC\	.	16C/	.	.	.	16c/	16cc\	.	16g\	.	16gg\
.	.	16r	.	.	.	16r	16r	.	16r	.	16r
8GG\J	.	16C/	.	.	.	16c/	16r	.	16g\	.	16gg\
.	.	16r	.	.	.	16r	16r	.	16r	.	16r
8GG#X\L	.	8D#X/L	.	8g/L	8gg\L	8d#X/L	8dd#X\L	.	8g#X\L	.	8gg#X\L
8GGn\	.	8Dn/	.	16g/Jk	16gg\Jk	8d/	8dd\	.	8g\	.	8ggn\
.	.	.	.	16r	16r	.	.	.	.	.	.
8FF\	.	8C/	.	8g/L	8gg\L	8c/	8cc\	.	8f\	.	8ff\
8GG\J	.	8D/J	.	8g#X/J	8gg#X\J	8d/J	8dd\J	.	8g\J	.	8gg\J
=35	=35	=35	=35	=35	=35	=35	=35	=35	=35	=35	=35
!!pagebreak:original
16FFF/	1r	8C/	.	2g/	2gg\	8c/	8f/L	.	1r	.	2r
16r	.	.	.	.	.	.	.	.	.	.	.
8r	.	8r	.	.	.	8r	8f/	.	.	.	.
16FFF/	.	8C/	.	.	.	8c/	8f/	.	.	.	.
16r	.	.	.	.	.	.	.	.	.	.	.
16FFF/	.	8r	.	.	.	8r	8f/J	.	.	.	.
16r	.	.	.	.	.	.	.	.	.	.	.
16CC/	.	8G\	.	2f/	2ff\	8g\	8cc\L	.	.	.	8r
16r	.	.	.	.	.	.	.	.	.	.	.
8r	.	8r	.	.	.	8r	8cc\	.	.	.	8r
16CC/	.	8G\	.	.	.	8g\	8cc\	.	.	.	16cc\
16r	.	.	.	.	.	.	.	.	.	.	16r
16CC/	.	8r	.	.	.	8r	8cc\J	.	.	.	16cc\
16r	.	.	.	.	.	.	.	.	.	.	16r
=36	=36	=36	=36	=36	=36	=36	=36	=36	=36	=36	=36
8GGG#X/L	1r	8A-X\L	.	2d#X/	2dd#X\	8a-\L	8g#X/L	.	1r	.	8dd#X\L
8GGG#X/	.	8A-X\	.	.	.	8a-\	8g#X/	.	.	.	8dd#X\
8GGG#X/	.	8A-X\	.	.	.	8a-\	8g#X/	.	.	.	8dd#X\
8GGG#X/J	.	8A-X\J	.	.	.	8a-\J	8g#X/J	.	.	.	8dd#X\J
8AAA#X/L	.	8G\L	.	4c/	4cc\	8g\L	8g/L	.	.	.	8ddn\L
8AAA#X/	.	8G\	.	.	.	8g\	8g/	.	.	.	8dd\
8BBB/	.	8G\	.	4B/	4b\	8g\	8g/	.	.	.	8b\
8BBB/J	.	8G\J	.	.	.	8g\J	8g/J	.	.	.	8b\J
=37	=37	=37	=37	=37	=37	=37	=37	=37	=37	=37	=37
2CC/	1r	2C/	.	[1c	[1cc	4c/	4r	.	4r	.	4r
.	.	.	.	.	.	4G/	8cc\L	mp	8g\L	.	8cc\L
.	.	.	.	.	.	.	8cc\J	.	8g\J	.	8cc\J
2GGG/	.	2GG/	.	.	.	4G/	8cc\L	.	8g\L	.	8cc\L
.	.	.	.	.	.	.	8dd\	.	8g#X\	.	8dd\
.	.	.	.	.	.	4F/	8cc\	.	8g\	.	8cc\
.	.	.	.	.	.	.	8b\J	.	8f\J	.	8b\J
=38	=38	=38	=38	=38	=38	=38	=38	=38	=38	=38	=38
!!pagebreak:original
2GGG#X/	1r	2AA-X/	.	1c]	1cc]	4D#X/	4g/	.	4d#X\	.	4g/
.	.	.	.	.	.	4G#X/	8cc\L	.	8g\L	.	8dd#X\L
.	.	.	.	.	.	.	8cc\J	.	8g\J	.	8dd#X\J
2DD#X\	.	2D#X\	.	.	.	4G/	8cc\L	.	8g\L	.	8dd#X\L
.	.	.	.	.	.	.	8dd\	.	8g#X\	.	8ff\
.	.	.	.	.	.	4D#X/	8cc\	.	8g\	.	8dd#X\
.	.	.	.	.	.	.	8b\J	.	8f\J	.	8ddn\J
=39	=39	=39	=39	=39	=39	=39	=39	=39	=39	=39	=39
8FFF/	1r	8FF/	.	[1c	[1cc	4F/	8cc\L	.	8g\L	.	8dd#X\L
8r	.	8r	.	.	.	.	8b\	.	8f\	.	8ddn\
4r	.	4r	.	.	.	4G#X/	8g\J	.	8d#X\J	.	8cc\J
.	.	.	.	.	.	.	4g#X/	.	4f\	.	4dd\
2CC/	.	2C/	.	.	.	4G/	.	.	.	.	.
.	.	.	.	.	.	.	4g/	.	4d#\	.	4cc\
.	.	.	.	.	.	4c/	.	.	.	.	.
.	.	.	.	.	.	.	[8cc\	.	[8g#X\	.	[8ff\
=40	=40	=40	=40	=40	=40	=40	=40	=40	=40	=40	=40
2GGG#X/	1r	2GG#X/	.	1c]	1cc]	4c/	8cc\]	.	8g#\]	.	8ff\]
.	.	.	.	.	.	.	4cc\	.	4g#X\	.	4ff\
.	.	.	.	.	.	4c/	.	.	.	.	.
.	.	.	.	.	.	.	8cc\	.	8g#X\	.	8ff\
2AAA#X/	.	2AA#X/	.	.	.	4B/	8g#X/L	.	8g\L	.	8dd#X\L
.	.	.	.	.	.	.	8g/	.	8f\	.	8ddn\
.	.	.	.	.	.	4G/	8f/	.	8d#X\	.	8cc\
.	.	.	.	.	.	.	8d#X/J	.	8d\J	.	8b\J
=41	=41	=41	=41	=41	=41	=41	=41	=41	=41	=41	=41
!!pagebreak:original
8C\L	1r	1r	.	1r	1r	4c/	1r	.	4c/	.	4cc\
16G\L	.	.	.	.	.	.	.	.	.	.	.
16G#X\JJ	.	.	.	.	.	.	.	.	.	.	.
8Gn\L	.	.	.	.	.	4G/	.	.	8c/	.	8cc\
8C\J	.	.	.	.	.	.	.	.	4d#X\	.	4dd#X\
8F\L	.	.	.	.	.	4G/	.	.	.	.	.
8D#X\	.	.	.	.	.	.	.	.	4d\	.	4ddn\
8Dn\	.	.	.	.	.	4F/	.	.	.	.	.
8D#X\J	.	.	.	.	.	.	.	.	[8c/	.	[8cc\
=42	=42	=42	=42	=42	=42	=42	=42	=42	=42	=42	=42
8C\L	1r	1r	.	1r	1r	4D#X/	1r	.	8c/]	.	8cc\]
16G\L	.	.	.	.	.	.	.	.	4c/	.	4cc\
16G#X\JJ	.	.	.	.	.	.	.	.	.	.	.
8Gn\L	.	.	.	.	.	4A-/	.	.	.	.	.
8C\J	.	.	.	.	.	.	.	.	8c/	.	8cc\
8F\L	.	.	.	.	.	4G/	.	.	8c--/L	.	8cc--\L
8D#X\	.	.	.	.	.	.	.	.	8c/J	.	8ccn\J
8Dn\	.	.	.	.	.	4D#X/	.	.	4c--/	.	4cc--\
8F\J	.	.	.	.	.	.	.	.	.	.	.
=43	=43	=43	=43	=43	=43	=43	=43	=43	=43	=43	=43
!!pagebreak:original
8C\L	1r	1r	.	1r	1r	4F/	1r	.	4c/	.	4cc\
16G\L	.	.	.	.	.	.	.	.	.	.	.
16G#X\JJ	.	.	.	.	.	.	.	.	.	.	.
8Gn\L	.	.	.	.	.	4A-/	.	.	8c/	.	8cc\
8C\J	.	.	.	.	.	.	.	.	4d#X\	.	4dd#X\
8F\L	.	.	.	.	.	4G/	.	.	.	.	.
8D#X\	.	.	.	.	.	.	.	.	4d#X\	.	4dd#\
8Dn\	.	.	.	.	.	4c/	.	.	.	.	.
8D#X\J	.	.	.	.	.	.	.	.	[8g#X\	.	[8gg#X\
=44	=44	=44	=44	=44	=44	=44	=44	=44	=44	=44	=44
8CC\L	1r	1r	.	8g#X/	8gg#X\	4c/	8gg#X\	mf	8g#\]	.	8gg#\]
8DD\	.	.	.	4g#X/	4gg#X\	.	4gg#X\	.	4g#X\	.	4gg#X\
8DD#X\	.	.	.	.	.	4c/	.	.	.	.	.
8FF\J	.	.	.	8g#X/	8gg#X\	.	8gg#X\	.	8g#X\	.	8gg#X\
8GG\L	.	.	.	8g/L	8gg\L	4c/	8gg\L	.	8g\L	.	8ggn\L
8GG#X\	.	.	.	8f/	8ff\	.	8ff\	.	8f\	.	8ff\
8BB\	.	.	.	8d#X/	8dd#X\	4r	8dd#X\	.	8d#X\	.	8dd#X\
8C\J	.	.	.	8d/J	8dd\J	.	8dd\J	.	8d\J	.	8ddn\J
=45	=45	=45	=45	=45	=45	=45	=45	=45	=45	=45	=45
!!pagebreak:original
8CC/L	1r	8G\L	.	4r	4r	8g\L	8g/L	.	4r	.	8gg\L
8CC/	.	8D#X\J	.	.	.	8d#X\J	8d#X/J	.	.	.	8dd#X\
8CC/	.	4r	.	8g/	8gg\	4r	4r	.	8g\	.	8gg\J
8CC/J	.	.	.	8r	8r	.	.	.	8r	.	8r
8GGG#X/L	.	8G\L	.	4r	4r	8g\L	8g/L	.	4r	.	8gg\L
8GGG#X/	.	8D#X\J	.	.	.	8d#X\J	8d#X/J	.	.	.	8dd#X\
8GGG#X/	.	4r	.	8g/	8gg\	4r	4r	.	8g\	.	8gg\J
8GGG#X/J	.	.	.	8r	8r	.	.	.	8r	.	8r
=46	=46	=46	=46	=46	=46	=46	=46	=46	=46	=46	=46
8DD#X\L	1r	8G\L	.	2r	2r	8G/L	8g/L	.	2r	.	8gg\L
8DD#X\	.	8G\	.	.	.	8G/	8g/	.	.	.	8gg\
8DD#X\	.	8G\	.	.	.	8G/	8g/	.	.	.	8gg\
8DD#X\J	.	8G\J	.	.	.	8G/J	8g/J	.	.	.	8gg\J
8AAA#X/L	.	8F\L	.	8f/L	8ff\L	8F/L	8f/L	.	8f\L	.	8ff\L
8AAA#X/	.	8F\J	.	8f/J	8ff\J	8F/J	8f/J	.	8f\J	.	8ff\J
8AAA#X/	.	4G\	.	4g/	4gg\	4G/	4g/	.	4g\	.	4gg\
8AAA#X/J	.	.	.	.	.	.	.	.	.	.	.
=47	=47	=47	=47	=47	=47	=47	=47	=47	=47	=47	=47
!!pagebreak:original
8CC/L	1r	2r	.	1r	1r	2r	2r	.	8d#X\L	.	8dd#X\L
8CC/	.	.	.	.	.	.	.	.	8d#X\	.	8dd#X\
8CC/	.	.	.	.	.	.	.	.	8d#X\	.	8dd#X\
8CC/J	.	.	.	.	.	.	.	.	8d#X\J	.	8dd#X\J
8GGG#X/L	.	8r	.	.	.	8r	8r	.	8g\L	.	8gg\L
8GGG#X/	.	16D#X\LL	.	.	.	16d#X\LL	16a#X\LL	.	16d#X\L	.	16dd#X\L
.	.	16D#X\JJ	.	.	.	16d#X\JJ	16a#X\JJ	.	16d#X\JJ	.	16dd#X\JJ
8GGG#X/	.	4D#X\	.	.	.	4d#X\	4a#X\	.	4d#X\	.	4dd#\
8GGG#X/J	.	.	.	.	.	.	.	.	.	.	.
=48	=48	=48	=48	=48	=48	=48	=48	=48	=48	=48	=48
8DD#X\L	1r	1r	.	8g/L	8gg\L	1r	1r	.	8g\L	.	8gg\L
8DD#X\	.	.	.	8g/	8gg\	.	.	.	8g\	.	8gg\
8DD#X\	.	.	.	8g/	8gg\	.	.	.	8g\	.	8gg\
8DD#X\J	.	.	.	8g#X/J	8gg#X\J	.	.	.	8g#X\J	.	8gg#X\J
8AAA#X/L	.	.	.	8g/L	8gg\L	.	.	.	8g\L	.	8ggn\L
8AAA#X/	.	.	.	16f/L	16ff\L	.	.	.	16f\L	.	16ff\L
.	.	.	.	16f/JJ	16ff\JJ	.	.	.	16f\JJ	.	16ff\JJ
8AAA#X/	.	.	.	4f/	4ff\	.	.	.	4f\	.	4ff\
8AAA#X/J	.	.	.	.	.	.	.	.	.	.	.
=49	=49	=49	=49	=49	=49	=49	=49	=49	=49	=49	=49
!!pagebreak:original
8CC/L	1r	8DD#X/L	.	8d#X/L	8gg\L	8D#X/L	8d#X/L	.	8g\L	.	8gg\L
8CC/J	.	8DD#X/J	.	8d#X/J	8dd#X\J	8D#X/J	8d#X/J	.	8d#X\J	.	8dd#X\J
8r	.	4r	.	4r	4r	4r	4r	.	4r	.	4r
8r	.	.	.	.	.	.	.	.	.	.	.
8GG#X\L	.	8FF/L	.	8f/L	8gg\L	8F/L	8f/L	.	8g\L	.	8gg\L
8GG#X\J	.	8FF/J	.	8f/J	8dd#X\J	8F/J	8f/J	.	8d#X\J	.	8dd#X\J
8r	.	4r	.	4r	4r	4r	4r	.	4r	.	4r
8r	.	.	.	.	.	.	.	.	.	.	.
=50	=50	=50	=50	=50	=50	=50	=50	=50	=50	=50	=50
8GGG/L	1r	8GG/L	.	8g/L	8gg\L	8G/L	8g/L	.	8g\L	.	8gg\L
8GGG/J	.	8GG/J	.	8g/	8gg\	8G/J	8g/	.	8g\	.	8gg\
8r	.	8r	.	8g/	8gg\	8r	8g/	.	8g\	.	8gg\
8r	.	8GG/	.	8g/J	8gg\J	8G/	8g/J	.	8g\J	.	8gg\J
8AAA#X/L	.	8AA-X/L	.	8g#X/L	8gg#X\L	8G#X/L	8g#X/L	.	8g#X\L	.	8gg#X\L
8AAA#X/	.	8GG/J	.	8g/J	8gg\J	8G/J	8g/J	.	8g\J	.	8ggn\J
8AAA#X/	.	16FF/KL	.	16f/KL	16ff\KL	16F/KL	16f/KL	.	16f\KL	.	16ff\KL
.	.	8.GG/J	.	8.g/J	8.gg\J	8.G/J	8.g/J	.	8.g\J	.	8.gg\J
8AAA#X/J	.	.	.	.	.	.	.	.	.	.	.
=51	=51	=51	=51	=51	=51	=51	=51	=51	=51	=51	=51
8CC/L	1r	8.DD#X/L	.	8.d#X/L	8.dd#X\L	8.D#X/L	8.d#X/L	.	8.d#X/L	.	8.dd#X\L
8CC/	.	.	.	.	.	.	.	.	.	.	.
.	.	8.CC/	.	8.A#X/	8.a#X\	8.C/	8.A#X/	.	8.A#X/	.	8.a#X\
8CC/	.	.	.	.	.	.	.	.	.	.	.
8CC/J	.	8DD#X/J	.	8d#X/J	8dd#\J	8D#X/J	8d#X/J	.	8d#X/J	.	8dd#\J
8GGG#X/L	.	8.FF/L	.	8.f/L	8.ff\L	8.F/L	8.f/L	.	8.f\L	.	8.ff\L
8GGG#X/	.	.	.	.	.	.	.	.	.	.	.
.	.	8.DD#X/	.	8.c/	8.cc\	8.D#X/	8.c/	.	8.c\	.	8.cc\
8GGG#X/	.	.	.	.	.	.	.	.	.	.	.
8GGG#X/J	.	8FF/J	.	8f/J	8ff\J	8F/J	8f/J	.	8f\J	.	8ff\J
=52	=52	=52	=52	=52	=52	=52	=52	=52	=52	=52	=52
!!pagebreak:original
8DD#X\L	1r	8.GG/L	.	8.g/L	8.gg\L	8.G/L	8.g/L	.	8.g\L	.	8.gg\L
8DD#X\	.	.	.	.	.	.	.	.	.	.	.
.	.	8.FF/	.	8.d#X/	8.dd#X\	8.F/	8.d#X/	.	8.d#X\	.	8.dd#X\
8DD#X\	.	.	.	.	.	.	.	.	.	.	.
8DD#X\J	.	8GG/J	.	8g/J	8gg\J	8G/J	8g/J	.	8g\J	.	8gg\J
8AAA#X/L	.	8AA-X/L	.	8g#X/L	8gg#X\L	8G#X/L	8g#X/L	.	8g#X\L	.	8gg#X\L
8AAA#X/	.	8GG/	.	8g/	8gg\	8G/	8g/	.	8g\	.	8ggn\
8AAA#X/	.	8FF/	.	8f/	8ff\	8F/	8f/	.	8f\	.	8ff\
8AAA#X/J	.	8GG/J	.	8g/J	8gg\J	8G/J	8g/J	.	8g\J	.	8gg\J
=53	=53	=53	=53	=53	=53	=53	=53	=53	=53	=53	=53
8CC/L	1r	1r	.	8r	8r	8r	8r	.	8r	.	8r
8CC/	.	.	.	8d#X/L	8dd#X\L	8G/L	8g/L	.	8d#X/L	.	8dd#X\L
8CC/	.	.	.	8d/	8dd\	8F/	8f/	.	8d/	.	8ddn\
8CC/J	.	.	.	8c/J	8cc\J	8D#X/J	8d#X/J	.	8c/J	.	8cc\J
8AAA#X/L	.	.	.	16d#X/KL	16dd#X\KL	16G/KL	16g/KL	.	16d#X/KL	.	16dd#X\KL
.	.	.	.	8d/J	8dd\J	8F/J	8f/J	.	8d/J	.	8ddn\J
8AAA#X/	.	.	.	.	.	.	.	.	.	.	.
.	.	.	.	4c/	4cc\	4D#X/	4d#X/	.	4c/	.	4cc\
8AAA#X/	.	.	.	.	.	.	.	.	.	.	.
8AAA#X/J	.	.	.	.	.	.	.	.	.	.	.
.	.	.	.	16r	16r	16r	16r	.	16r	.	16r
=54	=54	=54	=54	=54	=54	=54	=54	=54	=54	=54	=54
!!pagebreak:original
8GGG#X/L	1r	1r	.	8r	8r	8r	8r	.	8r	.	8r
8GGG#X/	.	.	.	8d#X/L	8dd#X\L	8G/L	8g/L	.	8d#X/L	.	8dd#X\L
8GGG#X/	.	.	.	8d/	8dd\	8F/	8f/	.	8d/	.	8ddn\
8GGG#X/J	.	.	.	8c/J	8cc\J	8D#X/J	8d#X/J	.	8c/J	.	8cc\J
8GGGn/L	.	.	.	8.B/L	8.b\L	8.D/L	8.d/L	.	8.B/L	.	8.b\L
8GGG/	.	.	.	.	.	.	.	.	.	.	.
.	.	.	.	8.c/	8.cc\	8.D#X/	8.d#X/	.	8.c/	.	8.cc\
8GGG/	.	.	.	.	.	.	.	.	.	.	.
8GGG/J	.	.	.	8d/J	8dd\J	8F/J	8g/J	.	8d/J	.	8dd\J
=55	=55	=55	=55	=55	=55	=55	=55	=55	=55	=55	=55
8CC/L	1r	1r	.	8r	8r	8r	8r	.	8r	.	8r
8CC/	.	.	.	8d#X/L	8dd#X\L	8G/L	8g/L	.	8d#X/L	.	8dd#X\L
8CC/	.	.	.	8d/	8dd\	8F/	8f/	.	8d/	.	8ddn\
8CC/J	.	.	.	8c/J	8cc\J	8D#X/J	8d#X/J	.	8c/J	.	8cc\J
8DD\L	.	.	.	16f/KL	16ff\KL	16G#X/KL	16g#X/KL	.	16f\KL	.	16ff\KL
.	.	.	.	8e--X/	8ee-\	8G/	8g/	.	8d#X\	.	8dd#X\
8DD\	.	.	.	.	.	.	.	.	.	.	.
.	.	.	.	8.d/	8.dd\	8.F/	8.f/	.	8.d\	.	8.ddn\
8DD\	.	.	.	.	.	.	.	.	.	.	.
8DD\J	.	.	.	8c/J	8cc\J	8D#X/J	8d#X/J	.	8c\J	.	8cc\J
=56	=56	=56	=56	=56	=56	=56	=56	=56	=56	=56	=56
8DD#X\L	1r	1r	.	4.c/	4.cc\	4.D#X/	4.d#X/	.	4.c/	.	4.cc\
8DD#X\	.	.	.	.	.	.	.	.	.	.	.
8DD#X\	.	.	.	.	.	.	.	.	.	.	.
8DD#X\J	.	.	.	16d/LL	16b\LL	16F/LL	16d/LL	.	16d/LL	.	16dd\LL
.	.	.	.	16c/JJ	16cc\JJ	16D#X/JJ	16d#X/JJ	.	16c/JJ	.	16cc\JJ
8GG\L	.	.	.	4B/	4b\	2D/	4d/	.	4B/	.	4b\
8GG\	.	.	.	.	.	.	.	.	.	.	.
8GG\	.	.	.	4G/	4g/	.	4B/	.	4G/	.	4gg\
8GG\J	.	.	.	.	.	.	.	.	.	.	.
=57	=57	=57	=57	=57	=57	=57	=57	=57	=57	=57	=57
!!pagebreak:original
8GGG#X/L	1r	1r	.	8r	8r	8r	8r	.	8r	.	8r
8GGG#X/	.	.	.	8c/L	8cc\L	8D#X/L	8c/L	.	8c/L	.	8cc\L
8GGG#X/	.	.	.	8c/	8cc\	8D#X/	8c/	.	8c/	.	8cc\
8GGG#X/J	.	.	.	8c/J	8cc\J	8D#X/J	8c/J	.	8c/J	.	8cc\J
8AAA#X/L	.	.	.	8.d/L	8.dd\L	8.F/L	8.d/L	.	8.d/L	.	8.dd\L
8AAA#X/	.	.	.	.	.	.	.	.	.	.	.
.	.	.	.	8.c/	8.cc\	8.D#X/	8.c/	.	8.c/	.	8.cc\
8AAA#X/	.	.	.	.	.	.	.	.	.	.	.
8AAA#X/J	.	.	.	8d/J	8dd\J	8F/J	8d/J	.	8d/J	.	8dd\J
=58	=58	=58	=58	=58	=58	=58	=58	=58	=58	=58	=58
8CC/L	1r	1r	.	8d#X/L	8dd#X\L	8G/L	8d#X/L	.	8d#X/L	.	8dd#X\L
8CC/	.	.	.	8d/	8dd\	8F/	8d/	.	8d/	.	8ddn\
8CC/	.	.	.	8c/	8cc\	8D#X/	8c/	.	8c/	.	8cc\
8CC/J	.	.	.	8B/J	8b\J	8D/J	8B/J	.	8B/J	.	8b\J
8GGG/L	.	.	.	8.B/L	8.b\L	8.D/L	8.B/L	.	8.B/L	.	8.b\L
8GGG/	.	.	.	.	.	.	.	.	.	.	.
.	.	.	.	8.c/	8.cc\	8.D#X/	8.c/	.	8.c/	.	8.cc\
8GGG/	.	.	.	.	.	.	.	.	.	.	.
8GGG/J	.	.	.	8d/J	8dd\J	8F/J	8d/J	.	8d/J	.	8dd\J
=59	=59	=59	=59	=59	=59	=59	=59	=59	=59	=59	=59
!!pagebreak:original
8GGG#X/L	1r	1r	.	8r	8r	8r	8r	.	8r	.	8r
8GGG#X/	.	.	.	8c/L	8cc\L	8D#X/L	8c/L	.	8c/L	.	8cc\L
8GGG#X/	.	.	.	8c/	8cc\	8D#X/	8c/	.	8c/	.	8cc\
8GGG#X/J	.	.	.	8c/J	8cc\J	8D#X/J	8c/J	.	8c/J	.	8cc\J
8AAA#X/L	.	.	.	8.d/L	8.dd\L	8.F/L	8.d/L	.	8.d/L	.	8.dd\L
8AAA#X/	.	.	.	.	.	.	.	.	.	.	.
.	.	.	.	8.c/	8.cc\	8.D#X/	8.c/	.	8.c/	.	8.cc\
8AAA#X/	.	.	.	.	.	.	.	.	.	.	.
8AAA#X/J	.	.	.	8B/J	8b\J	8D/J	8B/J	.	8B/J	.	8b\J
=60	=60	=60	=60	=60	=60	=60	=60	=60	=60	=60	=60
4BBB#X/	1r	1r	.	2.c/	2.cc\	2D#X/	2.c/	.	2.c/	.	2.cc\
4GGG/	.	.	.	.	.	.	.	.	.	.	.
4BBB#X/	.	.	.	.	.	2r	.	.	.	.	.
4r	.	.	.	4r	4r	.	4r	.	4r	.	4r
=61	=61	=61	=61	=61	=61	=61	=61	=61	=61	=61	=61
8CC\L	1r	1r	.	1r	1r	8c/	8g/L	.	8c\L	.	8cc\L
16GG\L	.	.	.	.	.	8r	16c/Jk	.	16g\Jk	.	16gg\Jk
16GG\JJ	.	.	.	.	.	.	16r	.	16r	.	16r
8GG\L	.	.	.	.	.	8c/	8g/L	.	8c\L	.	8cc\L
8FF\J	.	.	.	.	.	8r	16d/Jk	.	16f\Jk	.	16ff\Jk
.	.	.	.	.	.	.	16r	.	16r	.	16r
8DD#X/L	.	.	.	.	.	8c/	8g/L	.	8c/L	.	8cc\L
8DDn/	.	.	.	.	.	8r	16d#X/Jk	.	16d#X/Jk	.	16dd#X\Jk
.	.	.	.	.	.	.	16r	.	16r	.	16r
8CC/	.	.	.	.	.	8c/	8g/L	.	8c/L	.	8cc\L
8AAA#X/J	.	.	.	.	.	8r	16g#X/Jk	.	16d/Jk	.	16ddn\Jk
.	.	.	.	.	.	.	16r	.	16r	.	16r
=62	=62	=62	=62	=62	=62	=62	=62	=62	=62	=62	=62
!!pagebreak:original
8GGG#X/L	1r	1r	.	1r	2r	8g\	8f/L	.	8c\L	.	8cc\L
8CC/	.	.	.	.	.	8r	16g/Jk	.	16g\Jk	.	16gg\Jk
.	.	.	.	.	.	.	16r	.	16r	.	16r
8CC#X/	.	.	.	.	.	8g\	16f/	.	16c/	.	16ff\
.	.	.	.	.	.	.	16r	.	16r	.	16r
8DD/J	.	.	.	.	.	8r	16g/LL	.	16g#X\LL	.	2r
.	.	.	.	.	.	.	16g/JJ	.	16g\JJ	.	.
16DD#X/KL	.	.	.	.	8gg\L	8f\	16g/LL	.	16f\LL	.	.
8DD#/	.	.	.	.	.	.	16g/	.	16d#X\JJ	.	.
.	.	.	.	.	16gg\Jk	8r	16g/JJ	.	4c/	.	.
8DD#/	.	.	.	.	16r	.	16r	.	.	.	.
.	.	.	.	.	16r	8d#X\	4r	.	.	.	.
16DDn/L	.	.	.	.	16gg\	.	.	.	.	.	.
16DD/	.	.	.	.	16r	8r	.	.	8r	.	8r
16CCn/JJ	.	.	.	.	16ff\	.	.	.	.	.	.
=63	=63	=63	=63	=63	=63	=63	=63	=63	=63	=63	=63
16FFF/	1r	1r	.	1r	8.dd#X\	8c/	8f/L	.	2r	.	2r
16r	.	.	.	.	.	.	.	.	.	.	.
8r	.	.	.	.	.	8r	8f/	.	.	.	.
.	.	.	.	.	16r	.	.	.	.	.	.
16FFF/	.	.	.	.	4r	8c/	8f/	.	.	.	.
16r	.	.	.	.	.	.	.	.	.	.	.
16FFF/	.	.	.	.	.	8r	8f/J	.	.	.	.
16r	.	.	.	.	.	.	.	.	.	.	.
16CC/	.	.	.	.	2r	8g\	8cc\L	.	8r	.	8r
16r	.	.	.	.	.	.	.	.	.	.	.
8r	.	.	.	.	.	8r	8cc\	.	8r	.	8r
16CC/	.	.	.	.	.	8g\	8cc\	.	16c/	.	16cc\
16r	.	.	.	.	.	.	.	.	16r	.	16r
16CC/	.	.	.	.	.	8r	8cc\J	.	16c/	.	16cc\
16r	.	.	.	.	.	.	.	.	16r	.	16r
=64	=64	=64	=64	=64	=64	=64	=64	=64	=64	=64	=64
!!pagebreak:original
8GGG#X/L	1r	1r	.	2r	2r	8a-\L	8g#X/L	.	8d#X\L	.	8dd#X\L
8GGG#X/	.	.	.	.	.	8a-\	8g#X/	.	8d#X\	.	8dd#X\
8GGG#X/	.	.	.	.	.	8a-\	8g#X/	.	8d#X\	.	8dd#X\
8GGG#X/J	.	.	.	.	.	8a-\J	8g#X/J	.	8d#X\J	.	8dd#X\J
8AAA#X/L	.	.	.	8dd#X\L	8dd#X\L	8g\L	8g/L	.	8d\L	.	8ddn\L
8AAA#X/	.	.	.	8dd#X\J	8dd#X\J	8g\	8g/	.	8d\	.	8dd\
8BBB/	.	.	.	16dd\LL	16dd\LL	8g\	8g/	.	8d#X\	.	8dd#X\
.	.	.	.	16cc\	16cc\J	.	.	.	.	.	.
8BBB/J	.	.	.	16b\	8b\J	8g\J	8g/J	.	8d#X\J	.	8dd#X\J
.	.	.	.	[16cc\JJ	.	.	.	.	.	.	.
=65	=65	=65	=65	=65	=65	=65	=65	=65	=65	=65	=65
8CC\L	1r	1r	.	8.cc\]	4cc\	16c/	16cc\	.	16g\	.	16gg\
.	.	.	.	.	.	16r	16r	.	16r	.	16r
8GG\	.	.	.	.	.	8r	8r	.	8r	.	8r
.	.	.	.	16r	.	.	.	.	.	.	.
8CC\	.	.	.	4r	4r	16c/	16cc\	.	16g\	.	16gg\
.	.	.	.	.	.	16r	16r	.	16r	.	16r
8FF\J	.	.	.	.	.	16c/	8r	.	16g\	.	16gg\
.	.	.	.	.	.	16r	.	.	16r	.	16r
8CC/L	.	.	.	2r	2r	16G/	16dd\	.	16f\	.	16ff\
.	.	.	.	.	.	16r	16r	.	16r	.	16r
8DD#X/	.	.	.	.	.	8r	8r	.	8r	.	8r
8CC/	.	.	.	.	.	16G/	16dd\	.	16f\	.	16ff\
.	.	.	.	.	.	16r	16r	.	16r	.	16r
8DDn/J	.	.	.	.	.	16G/	8r	.	16f\	.	16ff\
.	.	.	.	.	.	16r	.	.	16r	.	16r
=66	=66	=66	=66	=66	=66	=66	=66	=66	=66	=66	=66
!!pagebreak:original
8CC\L	1r	1r	.	2r	2r	16c/	16cc\	.	16g\	.	16gg\
.	.	.	.	.	.	16r	16r	.	16r	.	16r
8GG\	.	.	.	.	.	8r	8r	.	8r	.	8r
8CC\	.	.	.	.	.	16c/	16cc\	.	16g\	.	16gg\
.	.	.	.	.	.	16r	16r	.	16r	.	16r
8GG\J	.	.	.	.	.	16c/	16r	.	16g\	.	16gg\
.	.	.	.	.	.	16r	16r	.	16r	.	16r
8GG#X\L	.	.	.	8g/L	8gg\L	8d#X/L	8dd#X\L	.	8g#X\L	.	8gg#X\L
8GGn\	.	.	.	16g/Jk	16gg\Jk	8d/	8dd\	.	8g\	.	8ggn\
.	.	.	.	16r	16r	.	.	.	.	.	.
8FF\	.	.	.	8g/L	8gg\L	8c/	8cc\	.	8f\	.	8ff\
8GG\J	.	.	.	8g#X/J	8gg#X\J	8d/J	8dd\J	.	8g\J	.	8gg\J
=67	=67	=67	=67	=67	=67	=67	=67	=67	=67	=67	=67
16FFF/	1r	1r	.	2g/	2gg\	8c/	8f/L	.	2r	.	2r
16r	.	.	.	.	.	.	.	.	.	.	.
8r	.	.	.	.	.	8r	8f/	.	.	.	.
16FFF/	.	.	.	.	.	8c/	8f/	.	.	.	.
16r	.	.	.	.	.	.	.	.	.	.	.
16FFF/	.	.	.	.	.	8r	8f/J	.	.	.	.
16r	.	.	.	.	.	.	.	.	.	.	.
16CC/	.	.	.	2f/	2ff\	8g\	8cc\L	.	8r	.	8r
16r	.	.	.	.	.	.	.	.	.	.	.
8r	.	.	.	.	.	8r	8cc\	.	8r	.	8r
16CC/	.	.	.	.	.	8g\	8cc\	.	16c/	.	16cc\
16r	.	.	.	.	.	.	.	.	16r	.	16r
16CC/	.	.	.	.	.	8r	8cc\J	.	16c/	.	16cc\
16r	.	.	.	.	.	.	.	.	16r	.	16r
=68	=68	=68	=68	=68	=68	=68	=68	=68	=68	=68	=68
!!pagebreak:original
8GGG#X/L	1r	1r	.	2d#X/	2dd#X\	8a-\L	8g#X/L	.	8d#X\L	.	8dd#X\L
8GGG#X/	.	.	.	.	.	8a-\	8g#X/	.	8d#X\	.	8dd#X\
8GGG#X/	.	.	.	.	.	8a-\	8g#X/	.	8d#X\	.	8dd#X\
8GGG#X/J	.	.	.	.	.	8a-\J	8g#X/J	.	8d#X\J	.	8dd#X\J
8AAA#X/L	.	.	.	4c/	4cc\	8g\L	8g/L	.	8d\L	.	8ddn\L
8AAA#X/	.	.	.	.	.	8g\	8g/	.	8d\	.	8dd\
8DD#X/	.	.	.	4B/	4b\	8g\	8g/	.	8d#X\	.	8b\
8DD#X/J	.	.	.	.	.	8g\J	8g/J	.	8d#\J	.	8b\J
=69	=69	=69	=69	=69	=69	=69	=69	=69	=69	=69	=69
8CC\L	1r	16c\	.	1r	4r	8c/	4r	.	4r	.	4dd#X\
.	.	16r	.	.	.	.	.	.	.	.	.
8GG#X\	.	16B\	.	.	.	8r	.	.	.	.	.
.	.	16r	.	.	.	.	.	.	.	.	.
8CC\	.	16c\	.	.	4gg\	8g\	4g/	.	4g\	.	4gg\
.	.	16r	.	.	.	.	.	.	.	.	.
8GGn\J	.	8.d\	.	.	.	8r	.	.	.	.	.
8CC\L	.	.	.	.	4r	8f\	4r	.	4r	.	4ff\
.	.	16r	.	.	.	.	.	.	.	.	.
8FF\	.	8c\	.	.	.	8r	.	.	.	.	.
8CC\	.	8B\	.	.	4gg\	8g\	4g/	.	4g\	.	4gg\
8GG\J	.	8r	.	.	.	8r	.	.	.	.	.
=70	=70	=70	=70	=70	=70	=70	=70	=70	=70	=70	=70
8CC\L	1r	4r	.	1r	8dd#X\L	8c/	1r	.	8d#X\L	.	8gg\L
8GG#X\	.	.	.	.	8dd#X\	8r	.	.	8d#X\	.	8gg\
8CC\	.	8C/	.	.	8dd#X\	8g\	.	.	8d#X\	.	8gg\
8GGn\J	.	4r	.	.	8dd#X\J	8r	.	.	8d#X\J	.	8gg\J
8CC\L	.	.	.	.	8ff\L	8f\	.	.	8f\L	.	8gg#X\L
8FF\	.	8G\	.	.	8dd#X\	8r	.	.	8d#X\	.	8ggn\
8CC\	.	4r	.	.	8dd\	8g\	.	.	8d\	.	8ff\
8GG\J	.	.	.	.	8dd#X\J	8r	.	.	8d#X\J	.	8gg\J
=71	=71	=71	=71	=71	=71	=71	=71	=71	=71	=71	=71
!!pagebreak:original
8CC\L	1r	8F\	.	1r	8dd#X\	8c/	1r	.	8d#X\	.	8dd#X\
8GG#X\	.	8r	.	.	8r	8r	.	.	8r	.	8r
8CC\	.	8F\L	.	.	8dd#X\L	8g\	.	.	8d#X\L	.	8dd#X\L
8GGn\J	.	8G\J	.	.	8ff\J	8r	.	.	8f\J	.	8ff\J
8CC\L	.	4F\	.	.	4dd#X\	8f\	.	.	4d#X\	.	4dd#X\
8FF\	.	.	.	.	.	8r	.	.	.	.	.
8CC\	.	4G\	.	.	4cc\	8g\	.	.	4c/	.	4gg\
8GG\J	.	.	.	.	.	8r	.	.	.	.	.
=72	=72	=72	=72	=72	=72	=72	=72	=72	=72	=72	=72
8GG\L	1r	8G\L	.	1r	1r	8c/	2r	.	8g\L	.	8gg\L
8GG\	.	8G\	.	.	.	8r	.	.	8g\	.	8gg\
8GG\	.	8G\	.	.	.	8g\	.	.	8g\	.	8gg\
8GG#X\J	.	8G#X\J	.	.	.	8r	.	.	8g#X\J	.	8gg#X\J
8GGn\L	.	8Gn\L	.	.	.	8g\L	2r	.	8g\L	.	8ggn\
8FF\J	.	8F\J	.	.	.	8f\J	.	.	8f\J	.	8r
4DD#X\	.	4D#X\	.	.	.	4d#X\	.	.	4d#X\	.	4r
=73	=73	=73	=73	=73	=73	=73	=73	=73	=73	=73	=73
!	!	!	!	!	!	!	!	!	!	!	!LO:TX:a:B:t=Slower
8CC/	1r	8C/	.	1r	1r	[1c	[1cc	.	8r	.	8r
8r	.	8r	.	.	.	.	.	.	8d#X/L	.	8dd#X\L
4r	.	4r	.	.	.	.	.	.	8d/	.	8ddn\
.	.	.	.	.	.	.	.	.	8c/J	.	8cc\J
2r	.	2r	.	.	.	.	.	.	16d#X/KL	.	16dd#X\KL
.	.	.	.	.	.	.	.	.	8d/J	.	8ddn\J
.	.	.	.	.	.	.	.	.	4c/	.	4cc\
.	.	.	.	.	.	.	.	.	16r	.	16r
=74	=74	=74	=74	=74	=74	=74	=74	=74	=74	=74	=74
!!pagebreak:original
1r	1r	1r	.	1r	1r	2c/]	2cc\]	.	8r	.	8r
.	.	.	.	.	.	.	.	.	8d#X/L	.	8dd#X\L
.	.	.	.	.	.	.	.	.	8d/	.	8ddn\
.	.	.	.	.	.	.	.	.	8c/J	.	8cc\J
.	.	.	.	.	.	4r	4r	.	8B/L	.	8.b\L
.	.	.	.	.	.	.	.	.	16B/K	.	.
.	.	.	.	.	.	.	.	.	8.c/	.	8.cc\
.	.	.	.	.	.	8r	8r	.	.	.	.
.	.	.	.	.	.	8r	8r	.	8d/J	.	8dd\J
=75	=75	=75	=75	=75	=75	=75	=75	=75	=75	=75	=75
1r	1r	1r	.	1r	1r	1c	1cc	.	8r	.	8r
.	.	.	.	.	.	.	.	.	8d#X/L	.	8dd#X\L
.	.	.	.	.	.	.	.	.	8d/	.	8ddn\
.	.	.	.	.	.	.	.	.	8c/J	.	8cc\J
.	.	.	.	.	.	.	.	.	16f\KL	.	16ff\KL
.	.	.	.	.	.	.	.	.	8d#X\	.	8ee-X\
.	.	.	.	.	.	.	.	.	8.d\	.	8.dd\
.	.	.	.	.	.	.	.	.	8c\J	.	8cc\J
=76	=76	=76	=76	=76	=76	=76	=76	=76	=76	=76	=76
1r	1r	1r	.	1r	1r	2g\	2g/	.	2c/	.	2cc\
.	.	.	.	.	.	16d/LL	16b\LL	.	16B/LL	.	16b\LL
.	.	.	.	.	.	16c/JJ	16b\JJ	.	16c/JJ	.	16cc\JJ
.	.	.	.	.	.	4.B/	4.b\	.	4.B/	.	4.b\
=77	=77	=77	=77	=77	=77	=77	=77	=77	=77	=77	=77
!!pagebreak:original
8GGG#X/L	1r	1r	.	8r	8r	8r	8r	.	8r	.	8r
!	!	!	!	!	!	!	!	!	!	!	!LO:TX:a:B:t=Fast
8GGG#X/	.	.	.	8c/L	8cc\L	8D#X/L	8c/L	.	8c/L	.	8cc\L
8GGG#X/	.	.	.	8c/	8cc\	8D#X/	8c/	.	8c/	.	8cc\
8GGG#X/J	.	.	.	8c/J	8cc\J	8D#X/J	8c/J	.	8c/J	.	8cc\J
8AAA#X/L	.	.	.	8.d/L	8.dd\L	8.F/L	8.d/L	.	8.d/L	.	8.dd\L
8AAA#X/	.	.	.	.	.	.	.	.	.	.	.
.	.	.	.	8.c/	8.cc\	8.D#X/	8.c/	.	8.c/	.	8.cc\
8AAA#X/	.	.	.	.	.	.	.	.	.	.	.
8AAA#X/J	.	.	.	8d/J	8dd\J	8F/J	8d/J	.	8d/J	.	8dd\J
=78	=78	=78	=78	=78	=78	=78	=78	=78	=78	=78	=78
8CC/L	1r	1r	.	8d#X/L	8dd#X\L	8G/L	8d#X/L	.	8d#X/L	.	8dd#X\L
8CC/	.	.	.	8d/	8dd\	8F/	8d/	.	8d/	.	8ddn\
8CC/	.	.	.	8c/	8cc\	8D#X/	8c/	.	8c/	.	8cc\
8CC/J	.	.	.	8B/J	8b\J	8D/J	8B/J	.	8B/J	.	8b\J
8GGG/L	.	.	.	8.B/L	8.b\L	8.D/L	8.B/L	.	8.B/L	.	8.b\L
8GGG/	.	.	.	.	.	.	.	.	.	.	.
.	.	.	.	8.c/	8.cc\	8.D#X/	8.c/	.	8.c/	.	8.cc\
8GGG/	.	.	.	.	.	.	.	.	.	.	.
8GGG/J	.	.	.	8d/J	8dd\J	8F/J	8d/J	.	8d/J	.	8dd\J
=79	=79	=79	=79	=79	=79	=79	=79	=79	=79	=79	=79
8GGG#X/L	1r	1r	.	8r	8r	8r	8r	.	8r	.	8r
8GGG#X/	.	.	.	8c/L	8cc\L	8D#X/L	8c/L	.	8g#X\L	.	8cc\L
8GGG#X/	.	.	.	8c/	8cc\	8D#X/	8c/	.	8g#X\	.	8cc\
8GGG#X/J	.	.	.	8c/J	8cc\J	8D#X/J	8c/J	.	8g#X\J	.	8cc\J
8AAA#X/L	.	.	.	8.d/L	8.dd\L	8.F/L	8.d/L	.	8.b\L	.	8.dd\L
8AAA#X/	.	.	.	.	.	.	.	.	.	.	.
.	.	.	.	8.c/	8.cc\	8.D#X/	8.c/	.	8.g\	.	8.cc\
8AAA#X/	.	.	.	.	.	.	.	.	.	.	.
8AAA#X/J	.	.	.	8B/J	8b\J	8D/J	8B/J	.	8g#X\J	.	8b\J
=80	=80	=80	=80	=80	=80	=80	=80	=80	=80	=80	=80
!!pagebreak:original
2BBB#X/	1r	1r	.	2c/	2cc\	2D#X/	2c/	.	2gT\	.	2cc\
4r	.	.	.	4r	4r	4r	4r	.	4r	.	4r
4r	.	.	.	4c/	4cc\	4C/	4c/	.	4c/	.	4cc\
=81	=81	=81	=81	=81	=81	=81	=81	=81	=81	=81	=81
2CC/	1r	1r	.	4g/	4gg\	4G/	4g/	.	4g\	.	4gg\
.	.	.	.	4g/	4gg\	4G/	4g/	.	4g\	.	4gg\
2GG\	.	.	.	8g/L	8gg\L	8G/L	8g/L	.	8g\L	.	8gg\L
.	.	.	.	8g#X/	8gg#X\	8G#X/	8g#X/	.	8g#X\	.	8gg#X\
.	.	.	.	8g/	8gg\	8G/	8g/	.	8g\	.	8ggn\
.	.	.	.	8f/J	8ff\J	8F/J	8f/J	.	8f\J	.	8ff\J
=82	=82	=82	=82	=82	=82	=82	=82	=82	=82	=82	=82
2GG#X\	1r	1r	.	4d#X/	4dd#X\	4D#X/	4d#X/	.	4d#X\	.	4dd#X\
.	.	.	.	8g/L	8gg\L	8G/L	8g/L	.	8g\L	.	8gg\L
.	.	.	.	8g/J	8gg\J	8G/J	8g/J	.	8g\J	.	8gg\J
2D#X\	.	.	.	8g/L	8gg\L	8G/L	8g/L	.	8g\L	.	8gg\L
.	.	.	.	8g#X/	8gg#X\	8G#X/	8g#X/	.	8g#X\	.	8gg#X\
.	.	.	.	8g/	8gg\	8G/	8g/	.	8g\	.	8ggn\
.	.	.	.	8f/J	8ff\J	8F/J	8f/J	.	8f\J	.	8ff\J
=83	=83	=83	=83	=83	=83	=83	=83	=83	=83	=83	=83
2FFF/	1r	1r	.	8g/L	8gg\L	8G/L	8g/L	.	8g\L	.	8gg\L
.	.	.	.	8f/	8ff\	8F/	8f/	.	8f\	.	8ff\
.	.	.	.	8d#X/J	8dd#X\J	8D#X/J	8d#X/J	.	8d#X\J	.	8dd#X\J
.	.	.	.	4f/	4ff\	4F/	4f/	.	4f\	.	4ff\
2CC/	.	.	.	.	.	.	.	.	.	.	.
.	.	.	.	4d#X/	4dd#\	4D#X/	4d#X/	.	4d#X\	.	4dd#X\
.	.	.	.	[8g#X/	[8gg#X\	[8G#X/	[8g#X/	.	[8g#X\	.	[8gg#X\
=84	=84	=84	=84	=84	=84	=84	=84	=84	=84	=84	=84
!!pagebreak:original
2GGG#X/	1r	1r	.	8g#/]	8gg#\]	8G#/]	8g#/]	.	8g#\]	.	8gg#\]
.	.	.	.	4g#X/	4gg#X\	4G#X/	4g#X/	.	4g#X\	.	4gg#X\
.	.	.	.	8g#X/	8gg#X\	8G#X/	8g#X/	.	8g#X\	.	8gg#X\
2AAA#X/	.	.	.	8g/L	8gg\L	8G/L	8g/L	.	8g\L	.	8ggn\L
.	.	.	.	8f/	8ff\	8F/	8f/	.	8f\	.	8ff\
.	.	.	.	8d#X/	8dd#X\	8D#X/	8d#X/	.	8d#X\	.	8dd#X\
.	.	.	.	8d/J	8dd\J	8D/J	8d/J	.	8d\J	.	8ddn\J
=85	=85	=85	=85	=85	=85	=85	=85	=85	=85	=85	=85
8CC/L	1r	4r	.	4r	8dd#X\L	4r	4r	.	8d#X\L	.	8dd#X\L
8CC/J	.	.	.	.	8dd#X\J	.	.	.	8d#X\J	.	8dd#X\J
4r	.	8DD#X/L	.	8d#X/L	4r	8D#X/L	8d#X/L	.	4r	.	4r
.	.	8DD#X/J	.	8d#X/J	.	8D#X/J	8d#X/J	.	.	.	.
8DD\L	.	4r	.	4r	8ff\L	4r	4r	.	8f\L	.	8ff\L
8DD\J	.	.	.	.	8ff\J	.	.	.	8f\J	.	8ff\J
4r	.	8FF/L	.	8f/L	4r	8F/L	8f/L	.	4r	.	4r
.	.	8FF/J	.	8f/J	.	8F/J	8f/J	.	.	.	.
=86	=86	=86	=86	=86	=86	=86	=86	=86	=86	=86	=86
8DD#X\L	1r	4r	.	4r	8gg\L	4r	4r	.	8g\L	.	8gg\L
8DD#X\J	.	.	.	.	8gg\J	.	.	.	8g\J	.	8gg\J
4r	.	8GG/L	.	8g/L	8r	8G/L	8g/L	.	8r	.	8r
.	.	8GG/J	.	8g/J	8gg\	8G/J	8g/J	.	8g\	.	8gg\
2FF\	.	2r	.	8g#X/L	8gg#X\L	8G#X/L	8g#X/L	.	8g#X\L	.	8gg#X\L
.	.	.	.	8g/	8gg\	8G/	8g/	.	8g\	.	8ggn\
.	.	.	.	8f/	8ff\	8F/	8f/	.	8f\	.	8ff\
.	.	.	.	8g/J	8gg\J	8G/J	8g/J	.	8g\J	.	8gg\J
=87	=87	=87	=87	=87	=87	=87	=87	=87	=87	=87	=87
!!pagebreak:original
2FFF/	1r	1r	.	1r	8.dd#X\L	8.D#X/L	8.d#X/L	.	8.d#X/L	.	8.dd#X\L
.	.	.	.	.	8.a#X\	8.C/	8.A#X/	.	8.A#X/	.	8.a#X\
.	.	.	.	.	8dd#\J	8D#X/J	8d#X/J	.	8d#X/J	.	8dd#\J
2CC/	.	.	.	.	8.ff\L	8.F/L	8.f/L	.	8.f\L	.	8.ff\L
.	.	.	.	.	8.cc\	8.D#X/	8.c/	.	8.c\	.	8.cc\
.	.	.	.	.	8ff\J	8F/J	8f/J	.	8f\J	.	8ff\J
=88	=88	=88	=88	=88	=88	=88	=88	=88	=88	=88	=88
2GGG#X/	1r	1r	.	1r	8.gg\L	8.G/L	8.g/L	.	8.g\L	.	8.gg\L
.	.	.	.	.	8.dd#X\	8.F/	8.d#X/	.	8.d#X\	.	8.dd#X\
.	.	.	.	.	8gg\J	8G/J	8g/J	.	8g\J	.	8gg\J
2AAA#X/	.	.	.	.	8gg#X\L	8A-/L	8g#X/L	.	8g#X\L	.	8gg#X\L
.	.	.	.	.	8gg\	8G/	8g/	.	8g\	.	8ggn\
.	.	.	.	.	8ff\	8F/	8f/	.	8f\	.	8ff\
.	.	.	.	.	8gg\J	8G/J	8g/J	.	8g\J	.	8gg\J
=89	=89	=89	=89	=89	=89	=89	=89	=89	=89	=89	=89
4r	1r	1r	.	1r	1r	1r	1r	.	1r	.	8gg\L
.	.	.	.	.	.	.	.	.	.	.	8gg\J
4r	.	.	.	.	.	.	.	.	.	.	8gg\L
.	.	.	.	.	.	.	.	.	.	.	16ff\L
.	.	.	.	.	.	.	.	.	.	.	16dd#X\JJ
2r	.	.	.	.	.	.	.	.	.	.	16ff\LL
.	.	.	.	.	.	.	.	.	.	.	16gg\
.	.	.	.	.	.	.	.	.	.	.	16ff\
.	.	.	.	.	.	.	.	.	.	.	16dd#X\JJ
.	.	.	.	.	.	.	.	.	.	.	8cc\L
.	.	.	.	.	.	.	.	.	.	.	8b\J
=90	=90	=90	=90	=90	=90	=90	=90	=90	=90	=90	=90
!!pagebreak:original
2r	1r	1r	.	1r	1r	1r	1r	.	1r	.	8cc\L
.	.	.	.	.	.	.	.	.	.	.	8dd\J
.	.	.	.	.	.	.	.	.	.	.	8dd#X\L
.	.	.	.	.	.	.	.	.	.	.	16cc\L
.	.	.	.	.	.	.	.	.	.	.	16dd#X\JJ
2r	.	.	.	.	.	.	.	.	.	.	8gg\L
.	.	.	.	.	.	.	.	.	.	.	8gg\
.	.	.	.	.	.	.	.	.	.	.	8ff\
.	.	.	.	.	.	.	.	.	.	.	8gg\J
=91	=91	=91	=91	=91	=91	=91	=91	=91	=91	=91	=91
1r	1r	1r	.	8g/L	8gg\L	1r	1r	.	1r	.	1r
.	.	.	.	8g/J	8gg\J	.	.	.	.	.	.
.	.	.	.	8g/L	8gg\L	.	.	.	.	.	.
.	.	.	.	16f/L	16ff\L	.	.	.	.	.	.
.	.	.	.	16d#X/JJ	16dd#X\JJ	.	.	.	.	.	.
.	.	.	.	16f/LL	16ff\LL	.	.	.	.	.	.
.	.	.	.	16g/	16gg\	.	.	.	.	.	.
.	.	.	.	16f/	16ff\	.	.	.	.	.	.
.	.	.	.	16d#X/JJ	16dd#X\JJ	.	.	.	.	.	.
.	.	.	.	8c/L	8cc\L	.	.	.	.	.	.
.	.	.	.	8B/J	8b\J	.	.	.	.	.	.
=92	=92	=92	=92	=92	=92	=92	=92	=92	=92	=92	=92
1r	1r	1r	.	8c/	8cc\	1r	1r	.	1r	.	1r
.	.	.	.	4c/	4cc\	.	.	.	.	.	.
.	.	.	.	8d/	8dd\	.	.	.	.	.	.
.	.	.	.	8d#X/L	8dd#X\L	.	.	.	.	.	.
.	.	.	.	8d/	8dd\	.	.	.	.	.	.
.	.	.	.	8c/	8cc\	.	.	.	.	.	.
.	.	.	.	8d/J	8dd\J	.	.	.	.	.	.
=93	=93	=93	=93	=93	=93	=93	=93	=93	=93	=93	=93
!!pagebreak:original
1r	1r	1r	.	8r	8r	1r	1r	.	8r	.	1r
.	.	.	.	8c/L	8cc\L	.	.	.	8g\L	.	.
.	.	.	.	8c/	8cc\	.	.	.	8g\	.	.
.	.	.	.	8c/J	8cc\J	.	.	.	8g\J	.	.
.	.	.	.	8d#X/L	8dd#X\L	.	.	.	8g#X\L	.	.
.	.	.	.	8d/	8dd\	.	.	.	8g\	.	.
.	.	.	.	8c/	8cc\	.	.	.	8f\	.	.
.	.	.	.	8d/J	8dd\J	.	.	.	8g\J	.	.
=94	=94	=94	=94	=94	=94	=94	=94	=94	=94	=94	=94
1r	1r	1r	.	8r	8r	1r	1r	.	8r	.	1r
.	.	.	.	8g/L	8gg\L	.	.	.	8g\L	.	.
.	.	.	.	8g/	8gg\	.	.	.	8g\	.	.
.	.	.	.	8g#X/J	8gg#X\J	.	.	.	8g#X\J	.	.
.	.	.	.	8g/L	8gg\L	.	.	.	8g\L	.	.
.	.	.	.	8f/	8ff\	.	.	.	8f\	.	.
.	.	.	.	8d#X/	8dd#X\	.	.	.	8d#X\	.	.
.	.	.	.	8d/J	8dd\J	.	.	.	8d\J	.	.
=95	=95	=95	=95	=95	=95	=95	=95	=95	=95	=95	=95
1r	1r	1r	.	8r	8r	1r	1r	.	8r	.	1r
.	.	.	.	8c/L	8cc\L	.	.	.	8c/L	.	.
.	.	.	.	8c/	8cc\	.	.	.	8c/	.	.
.	.	.	.	8c/J	8cc\J	.	.	.	8c/J	.	.
.	.	.	.	16d#X/	16dd#X\	.	.	.	16d#X\	.	.
.	.	.	.	8r	8r	.	.	.	8r	.	.
.	.	.	.	16c/	16cc\	.	.	.	16f\	.	.
.	.	.	.	8r	8r	.	.	.	8r	.	.
.	.	.	.	8B/	8b\	.	.	.	8g\	.	.
=96	=96	=96	=96	=96	=96	=96	=96	=96	=96	=96	=96
1r	1r	1r	.	2.c/	2.cc\	1r	1r	.	2.c/	.	1r
.	.	.	.	4r	4r	.	.	.	4r	.	.
=97	=97	=97	=97	=97	=97	=97	=97	=97	=97	=97	=97
1r	1r	1r	.	1r	1r	1r	1r	.	1r	.	1r
=98	=98	=98	=98	=98	=98	=98	=98	=98	=98	=98	=98
1r	1r	1r	.	1r	1r	1r	1r	.	1r	.	1r
=99	=99	=99	=99	=99	=99	=99	=99	=99	=99	=99	=99
!!pagebreak:original
1r	1r	1r	.	1r	1r	1r	1r	.	1r	.	1r
=100	=100	=100	=100	=100	=100	=100	=100	=100	=100	=100	=100
1r	1r	1r	.	1r	1r	1r	1r	.	1r	.	1r
=101	=101	=101	=101	=101	=101	=101	=101	=101	=101	=101	=101
1r	1r	1r	.	1r	1r	1r	1r	.	1r	.	1r
=102	=102	=102	=102	=102	=102	=102	=102	=102	=102	=102	=102
1r	1r	1r	.	1r	1r	1r	1r	.	1r	.	1r
=103	=103	=103	=103	=103	=103	=103	=103	=103	=103	=103	=103
1r	1r	1r	.	1r	1r	1r	1r	.	1r	.	1r
=104	=104	=104	=104	=104	=104	=104	=104	=104	=104	=104	=104
1r	1r	1r	.	1r	1r	1r	1r	.	1r	.	1r
=105	=105	=105	=105	=105	=105	=105	=105	=105	=105	=105	=105
1r	1r	1r	.	1r	1r	1r	1r	.	1r	.	1r
=106	=106	=106	=106	=106	=106	=106	=106	=106	=106	=106	=106
1r	1r	1r	.	1r	1r	1r	1r	.	1r	.	1r
=107	=107	=107	=107	=107	=107	=107	=107	=107	=107	=107	=107
1r	1r	1r	.	1r	1r	1r	1r	.	1r	.	1r
=108	=108	=108	=108	=108	=108	=108	=108	=108	=108	=108	=108
1r	1r	1r	.	1r	1r	1r	1r	.	1r	.	1r
=109	=109	=109	=109	=109	=109	=109	=109	=109	=109	=109	=109
1r	1r	1r	.	1r	1r	1r	1r	.	1r	.	1r
=110	=110	=110	=110	=110	=110	=110	=110	=110	=110	=110	=110
1r	1r	1r	.	1r	1r	1r	1r	.	1r	.	1r
=111	=111	=111	=111	=111	=111	=111	=111	=111	=111	=111	=111
1r	1r	1r	.	1r	1r	1r	1r	.	1r	.	1r
=112	=112	=112	=112	=112	=112	=112	=112	=112	=112	=112	=112
1r	1r	1r	.	1r	1r	1r	1r	.	1r	.	1r
=113	=113	=113	=113	=113	=113	=113	=113	=113	=113	=113	=113
1r	1r	1r	.	1r	1r	1r	1r	.	1r	.	1r
=114	=114	=114	=114	=114	=114	=114	=114	=114	=114	=114	=114
1r	1r	1r	.	1r	1r	1r	1r	.	1r	.	1r
=115	=115	=115	=115	=115	=115	=115	=115	=115	=115	=115	=115
1r	1r	1r	.	1r	1r	1r	1r	.	1r	.	1r
==	==	==	==	==	==	==	==	==	==	==	==
*-	*-	*-	*-	*-	*-	*-	*-	*-	*-	*-	*-
!!!system-decoration: s1,s2,s3,s4{(s5,s6)}s7,s8,s9
